dist/img/user.svg

<svg width="20" height="16" viewBox="0 0 20 16" fill="none" xmlns="http://www.w3.org/2000/svg">
<path d="M9.52021 9.36585C12.0958 9.36585 14.2031 7.25854 14.2031 4.68293C14.2031 2.10732 12.0958 0 9.52021 0C6.9446 0 4.83728 2.0878 4.83728 4.68293C4.83728 7.27805 6.9446 9.36585 9.52021 9.36585ZM9.52021 1.07317C11.5105 1.07317 13.13 2.69268 13.13 4.68293C13.13 6.67317 11.5105 8.29268 9.52021 8.29268C7.52996 8.29268 5.91045 6.67317 5.91045 4.68293C5.91045 2.69268 7.52996 1.07317 9.52021 1.07317Z" fill="#4F4F4F"/>
<path d="M18.8666 15.0634C16.291 12.7805 12.974 11.5122 9.5203 11.5122C6.06664 11.5122 2.74956 12.7805 0.173954 15.0634C-0.0406803 15.2585 -0.0601925 15.5903 0.134929 15.8244C0.330051 16.039 0.661759 16.0585 0.895905 15.8634C3.25688 13.7561 6.33981 12.5854 9.5203 12.5854C12.7008 12.5854 15.7837 13.7561 18.1642 15.8634C18.2618 15.961 18.3983 16 18.5154 16C18.6715 16 18.8081 15.9415 18.9252 15.8244C19.1203 15.6098 19.1008 15.2585 18.8666 15.0634Z" fill="#4F4F4F"/>
</svg>

<svg fill="none" xmlns="http://www.w3.org/2000/svg" viewBox="0 0 20 16"><path d="M9.52 9.366a4.697 4.697 0 004.683-4.683A4.697 4.697 0 009.52 0a4.684 4.684 0 000 9.366zm0-8.293c1.99 0 3.61 1.62 3.61 3.61 0 1.99-1.62 3.61-3.61 3.61-1.99 0-3.61-1.62-3.61-3.61 0-1.99 1.62-3.61 3.61-3.61zm9.347 13.99a14.082 14.082 0 00-9.347-3.55c-3.453 0-6.77 1.268-9.346 3.55a.548.548 0 00-.04.761.548.548 0 00.762.04 12.974 12.974 0 018.624-3.279c3.18 0 6.264 1.171 8.644 3.278a.5.5 0 00.351.137.562.562 0 00.41-.176.533.533 0 00-.058-.76z" fill="#4F4F4F"/></svg>
